X:1
T:January
T:January
T:By the fireside
T:P. Tchaikovsky Op. 37a, №1
C:P. Tchaikovsky
%%score { ( 1 2 ) | ( 3 4 ) }
L:1/8
Q:1/4=80
M:3/4
K:A
V:1 treble nm="Piano" snm="Pno."
V:2 treble 
V:3 bass 
V:4 bass 
V:1
"^Moderato simplice ma espressivo" F(G/A/)!<(! (GB)(xA) | (.[GB].[Ac]) ([Be]2 [Ac]2)!<)! | %2
 c(d/e/) ([cf]c) [Bd]2 | FG/=A/ (c(^A A)B) | F(G/=A/) (GB) (EA) | (.[GB].[Ac]) ([Be]2 [Ac]2) | %6
 c(^d/e/) (Gc B2) | c(^d/e/) (Gc B2) | c(^d/e/) (!>!ge dc) | [^DFc]2 [DF]2 [B,E]2 | %10
 ^d(c/B/) (FA) G2 | ([^CF][^B,G]) ([CF][B,G]) [=B,E]2 | d(c/B/) (FA) G2 | %13
 ([^CF][^B,G]) ([CF][B,G]) [=B,E]2 |"_poco" ([_F_B][_E=c]) ([FB][Ec]) [E_A]2 | %15
 ([_A=d][=G=e]) ([Ad][Ge]) =c2 | (=d/=f/e) (d/f/e) =c2 | (=d/=f/e) (d/f/e) =c2 | (=de) z4 | %19
 (!>![=Ge][^F^d]) (^A/^c/B)"_dim." (!>![Ge][Fd]) | (^A/c/B) (A/c/B) F2 | F(^G/=A/) (GB) (EA) | %22
 (.[GB].[Ac]) ([Be]2 [Ac]2) | c(d/e/) ([cf]c) [Bd]2 | F(G/A/) (c(^A A)B) | F(G/=A/) (GB) (EA) | %26
 (.[GB].[Ac]) ([Be]2 [Ac]2) |"_poco più""^riten." c(^d/e/) (Gc B2) | c(^d/e/) (Gc B2) || %29
[K:G]"^Meno mosso"[Q:1/4=80] (!>!e2 dc B^A) |"^leggierissimo" z4 (3f/g/b/e' | (!>!e2 dc B^A) | z6 | %33
 (!>!e2 dc B^A) | z4 (3f/g/b/e' | (!>!e2 dc B^A) | z (e dc B^A) | !>!=f2 !>!_B2 !>!_e2 | %38
 !>!_A2 (GA c_B) |"_espr." !>!=f2 !>!_B2 !>!_e2 | !>!_a2 !>!d2 !>!g2 |"^poco riten." B2 (^AB =ec) | %42
 B2 (^AB) (3(!arpeggio!gec) | B2 (^AB ec) | (B2 ^AB)({Bc)BAB} (3(_ag3/2=f/) | %45
 (=f2 (3(e/)^d/e/(3g/^f/g/ c') !fermata!z | (!>!e2 dc B^A) | z4 (3f/g/b/e' | (!>!e2 dc B^A) | z6 | %50
 (!>!e2 dc B^A) | z (e F^G =A^A) | !>!f2 !>!=d2 !>!^d2 | !>!^G2 (^AB ^d^c) | !>!f2 !>!=d2 !>!^d2 | %55
 !>!^G2 ^AB ^d^c | (!>!f2 !>!=d2 !>!^d2) | (!>!G2 F2)[K:bass] (G,2 | %58
 (F,)(F,/)^E,/ F,/^G,/A,/^A,/ B,/^C(=D/) | (D)(^D D)E ^EF) | !fermata!z6 || %61
[K:A][K:treble][Q:1/4=80] F(G/A/) (GB)(xA) | ([GB][Ac]) ([Be]2 [Ac]2) | c(d/e/) ([cf]c) [Bd]2 | %64
 FG/=A/ (c(^A A)B) | F(G/=A/) (GB) (EA) | ([GB][Ac]) ([Be]2 [Ac]2) | c(^d/e/) (Gc B2) | %68
 c(^d/e/) (Gc B2) | c(^d/e/) (!>!ge dc) | [^DFc]2 [DF]2 [B,E]2 | ^d(c/B/) (FA) G2 | %72
 ([^CF][^B,G]) ([CF][B,G]) [=B,E]2 | d(c/B/) (FA G2) | ([^CF][^B,G]) ([CF][B,G]) [=B,E]2 | %75
 ([_F_B][_E=c]) ([FB][Ec]) [E_A]2 | ([_A=d][=G=e]) ([Ad][Ge]) =c2 | (=d/=f/e) (d/f/e) =c2 | %78
 (=de) (!>![_B=g][=A^f]) (!>![_A=f][^Ge]) | (!>![=Ge][^F^d]) (^A/^c/B) (!>![Ge][Fd]) | %80
 (^A/c/B) (=A/c/B) F2 | F^G/=A/ (GB) (EA) | ([GB][Ac]) ([Be]2 [Ac]2) | c(d/e/) (fc) [Bd]2 | %84
 F(G/=A/) (c(^A A)B) | FG/=A/ (GB) (EA) | (.[GB].[Ac]) ([Be]2 [Ac]2) | c(d/e/) (fc) [Bd]2 | %88
 c(e/f/) (g^d) e2 | e(f/g/) (.a.g .f.e | =d) !>!A2 !>!a2 [^D^B^d] | [Ece]^F/G/ A ([=B,=DE]3 | %92
 [A,CE])(F/G/ A) [B,DE]3 | x (F/G/ A2) z"^poco riten." ^B, | B,C !>!=D3 x | %95
 x[K:bass] z x[K:treble] x (!>!A2 | (A2) =G=F E^D) | z4 (!>!a2 | (a2) =g=f e^d) | %99
 x2 ^f/e/c/ x2!8va(! (e''/ | (e''6) | !fermata!e''6)!8va)! |] %102
V:2
 z2 [B,E]2 (E2 | E2) E4 | z2 F2 F2 | z2 (^D2 =D2) | z2 [B,E]2 (E2 | E2) E4 | z2 (E2 [^DF]2) | %7
 [EB]2 (E2 [^DF]2) | [EB] z z2 z2 | x2 (CB,) x2 | z2 ^D2 E2 | x6 | z2 ^D2 E2 | x6 | x6 | %15
 x4 ([^D^F][E=G]) | _A[=G=c] A[Gc] (([^D^F][EG])) | _A[=G=c] A[Gc] ([^D^F][EG]) | %18
 _A[=G=c] (!>![_B=g][=A^f]) (!>![_A=f][Ge]) | x2 (E[^DF]) x2 | (E[^DF]) (E[DF]) ([^A,C]B,) | %21
 z2 [B,E]2 (E2 | E2) E4 | z2 F2 F2 | z2 (^D2 =D2) | z2 [B,E]2 (E2 | E2) E4 | z2 E2 [^DF]2 | %28
 [EB]2 E2 [^DF]2 ||[K:G] [EG]6 | x6 | [EG]6 | x6 | [EG]6 | x6 | [EG]6 | z2 [EG]4 | x6 | x4 [D_E]2 | %39
 x6 | x6 | x4 [=EG]2 | x4 [Gc]2 | x4 [EG]2 | x4 z2 | x2 x2 !fermata!z2 | [EG]6 | x6 | [EG]6 | x6 | %50
 z2 [EG]4 | z2 [EF]4 | x6 | x4 [=EF]2 | x6 | x4 [=EF]2 | x6 | x4[K:bass] x2 | x6 | x6 | x6 || %61
[K:A][K:treble] z2 [B,E]2 (E2 | E2) E4 | z2 F2 F2 | z2 (^D2 =D2) | z2 [B,E]2 (E2 | E2) E4 | %67
 z2 (E2 [^DF]2) | [EB]2 (E2 [^DF]2) | [EB] z z2 z2 | x2 (CB,) x2 | z2 ^D2 E2 | x6 | z2 ^D2 E2 | %74
 x6 | x6 | x4 ([^D^F][E=G]) | _A[=G=c] A[Gc] ([^D^F][EG]) | _A[=G=c] x4 | x2 (E[^DF]) z2 | %80
 (E[^DF]) (E[DF]) ([^A,C]B,) | z2 [B,E]2 (E2 | E2) E4 | z2 [Fc]2 F2 | z2 (^D2 =D2) | %85
 z2 [B,E]2 (E2 | E2) E4 | z2 [Fc]2 F2 | z2 [G^d]2 [Fc]2 | x6 | x6 | x6 | x6 | %93
 [A,CE] z z ([A,C] [A,C]) x | x6 | x[K:bass] x2[K:treble] x3 | A,6 | x6 | A6 | x11/2!8va(! x/ | %100
 ([e'a']2 [e'a']2 [e'a']2) | [e'a']6!8va)! |] %102
V:3
!p! z2 (E,4 | E,2) E,4 | z2!ped! !arpeggio![^A,,F,C]2 [B,,F,B,]2!ped-up! | %3
!>(! z2 ([B,,A,]2!>)! [E,G,]2) |!p! z2!<(! (E,4 | E,2) E,4!<)! |"^poco più"!f! z2 z2 (A,B,) | %7
 G,2 z2 (A,B,) | G, z z2 z2 | F,(G,/A,/) x2 (A,G,) | E,,/.E,/.F,/.G,/ (A,/B,/(!>!=C C)B,) | %11
 E,4 (A,G,) | E,,/.E,/.F,/.G,/ (A,/B,/(!>!=C C)B,) | E,4 (A,G,) | _A,4 (_D=C) | =C4 x2 | =C4 x2 | %17
 =C4 x2 |!mf! =C2 x4 | x2 (=G,F,) x z | (=G,F,) (G,F,) x2 |!p! z2!<(! (E,4 | E,2) E,4!<)! | %23
 x6!ped!!ped-up! |!>(! x6!>)! |!p! z2 (E,4 |!<(! E,2) E,4!<)! | z2!f! z2 (A,B,) | G,2 z2 (A,B,) || %29
[K:G]!p!"^molto espress." [C,G,C]6 | %30
!pp! (3z/!ped! E,,/B,,/(3G,/[I:staff -1]B,/E/ (3=A/G/E/[I:staff +1][K:treble](3^A/!ped-up!B/e/ z2 | %31
[K:bass]!p! [C,G,C]6 | %32
!pp! (3z/!ped! (E,,/B,,/(3G,/[I:staff -1]B,/E/ (3=A/G/E/(3C/!ped-up!B,/G,/[I:staff +1] (3C,/B,,/G,,/E,,) | %33
!p! [C,G,C]6 | %34
!pp! (3z/!ped! E,,/B,,/(3G,/[I:staff -1]B,/E/ (3=A/G/E/[I:staff +1][K:treble](3^A/!ped-up!B/e/ z2 | %35
[K:bass]!p!!<(! [C,G,C]6 | z2 [C,G,C]4!<)! | %37
!mf!(3z/!ped!(x/_A,/(3_D/[I:staff -1]=F/_A/)[I:staff +1] (3z/!ped! (_D,/_E,/(3_B,/[I:staff -1]_E/G/)[I:staff +1] (3z/!ped! (C,/E,/(3C/[I:staff -1]E/A/)!ped-up! | %38
[I:staff +1] (3z/!ped! (_B,,/=F,/(3_B,/[I:staff -1]_D/=F/)[I:staff +1] z2!ped-up! [_E,G,]2 | %39
 (3z/!ped! (_D,/_A,/(3_D/[I:staff -1]=F/_A/)[I:staff +1] (3z/!ped! (D,/_E,/(3_B,/[I:staff -1]_E/G/)[I:staff +1] (3z/!ped! (C,/E,/(3C/[I:staff -1]E/A/)!ped-up! | %40
[I:staff +1] (3z/!ped! (=F,/C/(3=F/[I:staff -1]_A/c/)[I:staff +1] (3z/!ped! (F,/G,/(3D/[I:staff -1]G/B/)[I:staff +1] (3z/!ped! (_E,/G,/(3_E/[I:staff -1]G/c/)!ped-up! | %41
!ped![I:staff +1] (3z/ (_D,/G,/(3_D/[I:staff -1]B,/=F/)[I:staff +1] z2!ped-up! [C,G,C]2 | %42
!ped! (3z/ (_D,/G,/(3_D/[I:staff -1]B,/=F/)[I:staff +1] z2!ped-up!!ped! !arpeggio![C,G,CE]2!ped-up! | %43
!ped! (3z/ (_D,/G,/(3_D/[I:staff -1]B,/=F/)[I:staff +1] z2!ped-up! [C,G,C]2 | %44
!ped! (3z/ _D,/G,/(3_D/[I:staff -1]B,/=F/[I:staff +1] z2!ped-up! z2 | %45
!ped! (3z/ (C,/G,/(3E/[I:staff -1]G/c/)[I:staff +1] x4!ped-up! |!p! [C,G,C]6 | %47
!pp! (3z/!ped! E,,/B,,/(3G,/[I:staff -1]B,/E/ (3=A/G/E/[I:staff +1][K:treble](3^A/!ped-up!B/e/ x2 | %48
[K:bass]!p! [C,G,C]6 | %49
!pp! (3z/!ped! (E,,/B,,/(3G,/[I:staff -1]B,/E/ (3=A/G/E/(3C/!ped-up!B,/G,/[I:staff +1] (3C,/B,,/G,,/E,,) | %50
!p!!<(! z2 [C,G,C]4 | z2 [C,F,C]4!<)! | %52
!ped! (3z/ (B,,/F,/(3^D/!ped-up![I:staff -1]F/B/)!ped![I:staff +1] (3z/ (B,,/G,/(3B,/!ped-up![I:staff -1]=D/G/)!ped![I:staff +1] (3z/ (B,,/F,/(3B,/!ped-up![I:staff -1]^D/F/) | %53
!ped![I:staff +1] (3z/ (B,,/^E,/(3B,/[I:staff -1]^C/^E/)[I:staff +1] x2!ped-up! [B,,F,^A,]2 | %54
!ped! (3z/ (B,,/F,/!ped-up!(3^D/[I:staff -1]F/B/)!ped![I:staff +1] (3z/ (B,,/G,/(3B,/!ped-up![I:staff -1]=D/G/)!ped![I:staff +1] (3z/ (B,,/F,/(3B,/!ped-up![I:staff -1]^D/F/) | %55
!ped![I:staff +1] (3z/ B,,/^E,/(3B,/[I:staff -1]^C/^E/[I:staff +1] x2!ped-up! [B,,F,^A,]2 | %56
!ped! (3z/ (B,,/F,/(3^D/!ped-up![I:staff -1]F/B/)!ped![I:staff +1] (3z/ (B,,/G,/(3B,/!ped-up![I:staff -1]=D/G/)!ped![I:staff +1] (3z/ (B,,/F,/(3B,/!ped-up![I:staff -1]^D/F/) | %57
!ped![I:staff +1] (3z/ (B,,/^E,/(3G,/!ped-up![I:staff -1]B,/=D/)!ped![I:staff +1] (3z/ (B,,/F,/(3B,/!ped-up![I:staff -1]^^C/^D/)!ped![I:staff +1] (3z/ (B,,,/^E,,/(3G,,/!ped-up![I:staff -1]B,,/=D,/) | %58
!ped![I:staff +1] z/ (B,,,/F,,/^D,/) z4!ped-up! |"^riten."!<(! z6!<)! | !fermata!z6 || %61
[K:A]!p! z2!<(! (E,4 | E,2) E,4!<)! | z2!ped! !arpeggio![^A,,F,C]2 [B,,F,B,]2!ped-up! | %64
!>(! z2 ([B,,A,]2!>)! [E,G,]2) |!p!!<(! z2 (E,4 | E,2) E,4!<)! |"^poco più" z2!f! z2 A,B, | %68
 G,2 z2 (A,B,) | G, z z2 z2 | F,(G,/A,/) x2 (A,G,) | (E,,/.E,/).F,/.G,/ (A,/B,/(!>!=C C)B,) | %72
 E,4 (A,G,) | (E,,/.E,/).F,/.G,/ (A,/B,/(!>!=C C)B,) | E,4 (A,G,) |"^poco" _A,4 (_D=C) | =C4 x2 | %77
 =C4 x2 |!mf! =C2 x4 | x2 (=G,F,)"^dim." z2 | (=G,F,) (G,F,) x2 |!p! z2!<(! (=E,4 | E,2) E,4!<)! | %83
 z2!ped! !arpeggio![^A,,F,C]2 [B,,F,B,]2!ped-up! |!>(! z2 ([B,,A,]2 [E,G,]2)!>)! |!p! z2!<(! (E,4 | %86
 E,2)!<(! E,4!<)!!<)! |"^cresc." z2 [_B,,F,C]2 [=B,,F,B,]2 | z2 [^B,,G,^D]2 [C,G,C]2 |!mf! z6 | %90
 A,(B,/C/) (.D.C .B,(.A,) |!p! A,) z z (A, ^^F,G,) | E,, z z (A, ^^F,G,) | %93
 E,, z z (F,/=F,/ E,)[^D,A,] | [D,A,][E,A,] !>![F,G,]3 [D,G,] | %95
!ppp!!ped! (3(A,,,/E,,/A,,/[I:staff -1](3D,/E,/A,/)[I:staff +1] (3(^D,/!ped-up!E,/A,/[I:staff -1](3^B,/C/E/)[I:staff +1] x2 | %96
 [=F,=C]6 | %97
!ped! (3(A,,/E,/A,/[I:staff -1](3^D/E/A/)[I:staff +1][K:treble] (3(^D/!ped-up!E/A/[I:staff -1](3^B/c/e/)[I:staff +1] x2 | %98
 [=F=c]6 | %99
 (3z/!ped! A,/E/(3A/[I:staff -1]^c/^d/[I:staff +1] x x/ (3(a/c'/e'/!8va(![I:staff -1](3g'/a'/c''/)[I:staff +1] x/!ped-up!!8va)! | %100
 (.[Ac]2 .[Ac]2 .[Ac]2) | !fermata![Ac]6 |] %102
V:4
 z2 (D,2 C,2) | (.B,,.A,,) (G,,2 A,,2) | x6 | x6 | z2 ((D,2 C,2)) | (.B,,.A,,) (G,,2 A,,2) | %6
 z2 (B,,4 | B,,2) (B,,4 | B,,) z z2 z2 | z2 B,,2 E,2 | E,, z E,4 | (A,,G,,) (A,,G,,) E,2 | %12
 E,, z E,4 | (A,,G,,) (A,,G,,) E,2 | (_D,"^cresc."=C,) (D,C,) G,2 | %15
 (=F,=E,) (F,E,) ([_A,=C][=C,=G,]) | (=F,=G,) (F,G,) ([_A,=C][=C,G,]) | %17
 (=F,=G,) (F,G,) ([_A,=C][=C,G,]) | (=F,=C,) (!>![=A,^C]D) (!>![=G,B,]=C) | %19
 (!>![^F,^A,]B,) z B,, ([F,A,]B,) | z B,, z B,, (E,^D,) | z2 (=D,2 C,2) | (.B,,.A,,) (G,,2 A,,2) | %23
 z2 !arpeggio![^A,,F,C]2 [B,,F,B,]2 | z2 ([B,,A,]2 [E,G,]2) | z2 (D,2 C,2) | %26
 (.B,,.A,,) (G,,2 A,,2) | z2 (B,,4 | B,,2) B,,4 ||[K:G] x6 | x3[K:treble] x3 |[K:bass] x6 | x6 | %33
 x6 | x3[K:treble] x3 |[K:bass] x6 | x6 | (3:2:2x/ _D, x (3:2:2x/ D, x (3:2:2x/ C, x | x6 | %39
 (3:2:2x/ _D, x (3:2:2x/ D, x (3:2:2x/ C, x | (3:2:2x/ =F, x (3:2:2x/ F, x (3:2:2x/ _E, x | x6 | %42
 x4 z2 | x6 | x6 | (3:2:2x/ C, x x4 | x6 | x3[K:treble] x3 |[K:bass] x6 | x6 | x6 | x6 | %52
 (3:2:2x/ B,, x (3:2:2x/ B,, x (3:2:2x/ B,, x | x6 | (3:2:2x/ B,, x (3:2:2x/ B,, x (3:2:2x/ B,, x | %55
 (3:2:2x/ B,, x x4 | (3:2:2x/ B,, x (3:2:2x/ B,, x (3:2:2x/ B,, x | %57
 (3:2:2x/ B,, x (3:2:2x/ B,, x x2 | x6 | x6 | x6 ||[K:A] z2 (D,2 C,2) | (B,,A,,) (G,,2 A,,2) | x6 | %64
 x6 | z2 (D,2 C,2) | (B,,A,,) (G,,2 A,,2) | x2 (B,,4 | B,,2) (B,,4 | B,,) z z2 z2 | z2 B,,2 E,2 | %71
 E,, z E,4 | (A,,G,,) (A,,G,,) E,2 | E,, z E,4 | (A,,G,,) (A,,G,,) E,2 | %75
 (_D,"^cresc."=C,) (D,C,) G,2 | (=F,=E,) (F,E,) ([_A,=C][=C,=G,]) | %77
 (=F,=G,) (F,G,) ([_A,=C][=C,G,]) | (=F,=C,) (!>![=A,^C]D) (!>![=G,=B,]=C) | %79
 (!>![^F,^A,]B,) z B,, (!>![F,A,]B,) | z B,, z B,, (E,^D,) | z2 (D,2 C,2) | (B,,A,,) (G,,2 A,,2) | %83
 x6 | x6 | z2 (D,2 C,2) | (.B,,.A,,) (G,,2 A,,2) | x6 | x6 | x6 | F,4 =F,2 | E, z z2 E,2 | %92
 x x z2 E,2 | x x x z2 (^F,,/=F,,/ | (E,,4) E,2) | x6 | x6 | x2[K:treble] x4 | x6 | %99
 x9/2!8va(! x3/2!8va)! | x6 | x6 |] %102

